X: 35307
T: Rose Tree, The
R: polka
M: 2/4
K: Dmajor
f/e/|dB AF|A2 AB/c/|d2 f/e/d/e/|fee
f/e/|dB AF|A2 AB/c/|d2 {f}ed/e/|fdd:|
e|fefg|a2gf|.e.bba|bee
f/e/|dB AF|A2 AB/c/|d2 f/e/d/e/|fdd:|

